__todo__/youtube.svg

<svg height="116" preserveAspectRatio="xMidYMid" viewBox="0 0 512 116" width="512" xmlns="http://www.w3.org/2000/svg"><path d="m159.889142 17.9305215c-1.908415-7.0526234-7.417622-12.56183072-14.470245-14.47024543-12.687679-3.46027607-63.7529657-3.46027607-63.7529657-3.46027607s-51.0652863.10485685-63.7529652 3.56513292c-7.0526234 1.90841471-12.56183073 7.41762198-14.47024544 14.47024538-3.83776074 22.5442229-5.32672801 56.8953272.10485685 78.5377812 1.90841471 7.0526235 7.41762199 12.5618305 14.47024539 14.4702455 12.6876789 3.460276 63.7529652 3.460276 63.7529652 3.460276s51.0652859 0 63.7529649-3.460276c7.052624-1.908415 12.561831-7.417622 14.470246-14.4702455 4.047474-22.5756799 5.295271-56.9058129-.104857-78.642638z" fill="#f00"/><path d="m65.4131194 81.7883436 42.3621676-24.5365031-42.3621676-24.5365031z" fill="#fff"/><path d="m491.23679 33.2396217c5.557413 0 9.751687 1.0485685 12.687679 3.0408486 2.935992 1.9922802 5.033129 5.1379857 6.291411 9.4371166s1.782567 10.1711145 1.782567 17.7208078v12.2682515h-26.948211v3.7748466l.419427 10.3808283c.314571 2.3068507.838855 3.9845603 1.67771 5.0331288s2.201994 1.5728528 3.98456 1.5728528c2.411708 0 4.089418-.9437117 4.928272-2.831135.943712-1.8874233 1.363139-5.0331288 1.467996-9.3322597l13.945961.8388548c.104857.6291411.104857 1.4679959.104857 2.5165644 0 6.6059816-1.782566 11.5342536-5.452556 14.7848158-3.66999 3.250563-8.703119 4.928272-15.3091 4.928272-7.969121 0-13.526534-2.516564-16.672239-7.4448363-3.145706-4.928272-4.823416-12.6876789-4.823416-23.0685071v-12.687679c.356514-17.8256646 3.491734-30.8803425 21.915082-30.9327709zm-193.880317 1.363139v52.5332822c0 3.1457056.314571 5.4525563 1.048569 6.8156953 1.488967 2.9150205 5.347699 2.1705369 7.444836.733998 1.210748-.8184105 2.186682-1.9389275 2.831135-3.2505624v-56.8324131h16.043098v71.6172293h-12.582822l-1.363139-8.8079757h-.31457c-3.460277 6.6059817-8.598262 9.9614007-15.413957 9.9614007-10.490404-.026738-13.056409-7.5839289-13.66745-15.2596823l-.039963-.5419183c-.079889-1.1741645-.117334-2.347023-.133692-3.4920598v-53.4769939zm82.732055 0v52.5332822c0 3.1457056.314571 5.4525563 1.048569 6.8156953 1.488967 2.9150205 5.347699 2.1705369 7.444836.733998 1.210748-.8184105 2.186682-1.9389275 2.831135-3.2505624v-56.8324131h16.043098v71.6172293h-12.582822l-1.363139-8.8079757h-.31457c-3.460276 6.6059817-8.598262 9.9614007-15.413957 9.9614007-10.490404-.026738-13.056408-7.5839289-13.66745-15.2596823l-.039963-.5419183c-.079888-1.1741645-.117334-2.347023-.133692-3.4920598v-53.4769939zm-129.288496-1.363139c5.242842 0 9.541973 1.0485685 12.687678 3.2505623 3.145706 2.2019939 5.557414 5.5574131 7.025409 10.1711146 1.467996 4.6137014 2.201994 10.8002556 2.201994 18.4548057v10.3808282c0 7.6545501-.733998 13.7362475-2.201994 18.3499489-1.467995 4.6137014-3.774846 7.9691206-7.025409 10.1711146-3.250562 2.097137-7.65455 3.250562-13.107106 3.250562-5.66227.104857-10.066258-1.048568-13.31682-3.145705-3.250562-2.201994-5.557413-5.5574133-6.920552-10.1711148-1.363139-4.6137014-1.99228-10.6953987-1.99228-18.3499488v-10.3808283c0-7.6545501.733998-13.9459611 2.30685-18.5596625 1.572853-4.7185583 3.984561-8.0739775 7.33998-10.1711146 3.355419-2.097137 7.65455-3.2505623 13.00225-3.2505623zm181.821779-28.73077712v37.74846622h.104856c1.467996-2.7262781 3.35542-4.9282719 5.976841-6.6059816 2.448269-1.646618 5.333211-2.5230561 8.283691-2.5165644 3.879704 0 6.815695 1.0485685 9.017689 3.0408487 2.201994 2.097137 3.774847 5.3476994 4.718559 9.856544.91422 4.3679432 1.434818 10.4087832 1.466463 18.0271895l.001533.7421867v11.3245399c0 10.5905419-1.36314 18.4548057-3.879704 23.4879346-2.621421 5.0331288-6.605982 7.5496928-12.058538 7.5496928-3.040848 0-5.767127-.733998-8.283691-2.097137-2.227454-1.298006-4.071568-3.158367-5.349669-5.3915157l-.207744-.3756107h-.314571l-1.677709 6.8156954h-13.31682v-101.60628842zm-64.172393 3.66998978v13.00224944h-15.938241v85.0389062h-15.728528v-85.0389062h-16.043098v-13.00224944zm-172.908947 0 .008897.0394807c.153624.68198302 2.274093 10.10708144 4.605202 21.08744854l.18444.8699712c.092407.4364703.18507.8750691.277882 1.3153545l.185788.8826886c.030987.1474458.061983.2950464.092983.4427852l.186021.887961c.031002.1482264.062.2965583.092991.4449793l.185821.8914651.270395 1.3028747c1.57383 7.6037601 3.07669 15.2299988 3.975838 20.6982836h.419427c.862013-4.9054132 2.11281-11.1825702 3.447071-17.5912192l.349761-1.6739888c.175626-.8376703.352221-1.6757429.529106-2.5114655l.275295-1.2977337c2.566855-12.0732511 5.120981-23.3521898 5.596137-25.44339832l.030698-.13505009c.031523-.13861289.047904-.21043683.047904-.21043683h16.043098l-18.559663 66.16467284v31.7716258h-15.833384v-31.666769h-.104857l-18.349949-66.26952964zm54.94499 36.17561354c-2.201994 0-3.66999 1.1534253-4.613701 3.5651329-.943712 2.4117075-1.36314 6.0816973-1.36314 11.219683v22.3345092c0 5.2428425.419428 9.122546 1.258283 11.4293967.838854 2.3068507 2.411707 3.4602761 4.718558 3.4602761 2.201994 0 3.774847-1.1534254 4.718558-3.4602761.943712-2.3068507 1.363139-6.1865542 1.363139-11.4293967v-22.3345092c0-5.1379857-.419427-8.9128323-1.363139-11.219683-.943711-2.4117076-2.516564-3.5651329-4.718558-3.5651329zm184.967485 2.097137c-1.277943 1.1796395-2.187249 2.6357571-2.727917 4.4547521l-.103218.368663v40.6844581c1.300225 2.2019938 3.145705 3.6699898 6.396268 3.7748466 1.677709 0 3.040848-.6291411 4.089417-1.8874233 1.048568-1.2582822 1.782566-3.3554192 2.201994-6.2914111.40265-2.8185521.612028-6.7001011.628134-11.6446468l.001007-.6236047v-9.3322597c0-5.6622699-.209714-9.9614008-.524285-13.0022495-.419427-3.0408487-.943711-5.2428425-1.887423-6.5011247-1.824509-2.6214213-5.767127-2.5899642-8.073977 0zm55.469274-2.4117076c-1.782567.1048569-3.040849.6291411-3.774847 1.5728528-.838855 1.0485685-1.363139 2.6214212-1.67771 4.9282719-.308279 2.2607137-.415149 10.1608805-.4193 10.4759829l-.000127 5.1476879h11.743967l-.00083-4.5398282-.000137.0874053c-.005854 1.5871209-.038759-.9213126-.111394-4.0003342l-.009921-.413608c-.066032-2.7064073-.162329-5.7237167-.297145-6.7573057-.314571-2.4117075-.838855-4.0894171-1.67771-5.0331288-.838855-.9437116-2.097137-1.4679959-3.774846-1.4679959z" fill="#282828"/></svg>

<?xml version="1.0" encoding="UTF-8"?>
<svg width="512px" height="116px" viewBox="0 0 512 116" version="1.1" xmlns="http://www.w3.org/2000/svg" xmlns:xlink="http://www.w3.org/1999/xlink" preserveAspectRatio="xMidYMid">
    <g>
				<g>
						<path d="M159.889142,17.9305215 C157.980727,10.8778981 152.47152,5.36869078 145.418897,3.46027607 C132.731218,0 81.6659313,0 81.6659313,0 C81.6659313,0 30.600645,0.104856851 17.9129661,3.56513292 C10.8603427,5.47354763 5.35113537,10.9827549 3.44272066,18.0353783 C-0.395040075,40.5796012 -1.88400735,74.9307055 3.54757751,96.5731595 C5.45599222,103.625783 10.9651995,109.13499 18.0178229,111.043405 C30.7055018,114.503681 81.7707881,114.503681 81.7707881,114.503681 C81.7707881,114.503681 132.836074,114.503681 145.523753,111.043405 C152.576377,109.13499 158.085584,103.625783 159.993999,96.5731595 C164.041473,73.9974796 165.28927,39.6673466 159.889142,17.9305215 Z" fill="#FF0000"></path>
						<polygon fill="#FFFFFF" points="65.4131194 81.7883436 107.775287 57.2518405 65.4131194 32.7153374"></polygon>
				</g>
				<path d="M491.23679,33.2396217 C496.794203,33.2396217 500.988477,34.2881902 503.924469,36.2804703 C506.860461,38.2727505 508.957598,41.418456 510.21588,45.7175869 C511.474162,50.0167178 511.998447,55.8887014 511.998447,63.4383947 L511.998447,75.7066462 L485.050236,75.7066462 L485.050236,79.4814928 L485.469663,89.8623211 C485.784234,92.1691718 486.308518,93.8468814 487.147373,94.8954499 C487.986228,95.9440184 489.349367,96.4683027 491.131933,96.4683027 C493.543641,96.4683027 495.221351,95.524591 496.060205,93.6371677 C497.003917,91.7497444 497.423344,88.6040389 497.528201,84.304908 L511.474162,85.1437628 C511.579019,85.7729039 511.579019,86.6117587 511.579019,87.6603272 C511.579019,94.2663088 509.796453,99.1945808 506.126463,102.445143 C502.456473,105.695706 497.423344,107.373415 490.817363,107.373415 C482.848242,107.373415 477.290829,104.856851 474.145124,99.9285787 C470.999418,95.0003067 469.321708,87.2408998 469.321708,76.8600716 L469.321708,64.1723926 C469.678222,46.346728 472.813442,33.2920501 491.23679,33.2396217 Z M297.356473,34.6027607 L297.356473,87.1360429 C297.356473,90.2817485 297.671044,92.5885992 298.405042,93.9517382 C299.894009,96.8667587 303.752741,96.1222751 305.849878,94.6857362 C307.060626,93.8673257 308.03656,92.7468087 308.681013,91.4351738 L308.681013,34.6027607 L324.724111,34.6027607 L324.724111,106.21999 L312.141289,106.21999 L310.77815,97.4120143 L310.46358,97.4120143 C307.003303,104.017996 301.865318,107.373415 295.049623,107.373415 C284.559219,107.346677 281.993214,99.7894861 281.382173,92.1137327 L281.34221,91.5718144 C281.262321,90.3976499 281.224876,89.2247914 281.208518,88.0797546 L281.208518,34.6027607 L297.356473,34.6027607 Z M380.088528,34.6027607 L380.088528,87.1360429 C380.088528,90.2817485 380.403099,92.5885992 381.137097,93.9517382 C382.626064,96.8667587 386.484796,96.1222751 388.581933,94.6857362 C389.792681,93.8673257 390.768615,92.7468087 391.413068,91.4351738 L391.413068,34.6027607 L407.456166,34.6027607 L407.456166,106.21999 L394.873344,106.21999 L393.510205,97.4120143 L393.195635,97.4120143 C389.735359,104.017996 384.597373,107.373415 377.781678,107.373415 C367.291274,107.346677 364.72527,99.7894861 364.114228,92.1137327 L364.074265,91.5718144 C363.994377,90.3976499 363.956931,89.2247914 363.940573,88.0797546 L363.940573,34.6027607 L380.088528,34.6027607 Z M250.800032,33.2396217 C256.042874,33.2396217 260.342005,34.2881902 263.48771,36.490184 C266.633416,38.6921779 269.045124,42.0475971 270.513119,46.6612986 C271.981115,51.275 272.715113,57.4615542 272.715113,65.1161043 L272.715113,75.4969325 C272.715113,83.1514826 271.981115,89.23318 270.513119,93.8468814 C269.045124,98.4605828 266.738273,101.816002 263.48771,104.017996 C260.237148,106.115133 255.83316,107.268558 250.380604,107.268558 C244.718334,107.373415 240.314346,106.21999 237.063784,104.122853 C233.813222,101.920859 231.506371,98.5654397 230.143232,93.9517382 C228.780093,89.3380368 228.150952,83.2563395 228.150952,75.6017894 L228.150952,65.2209611 C228.150952,57.566411 228.88495,51.275 230.457802,46.6612986 C232.030655,41.9427403 234.442363,38.5873211 237.797782,36.490184 C241.153201,34.393047 245.452332,33.2396217 250.800032,33.2396217 Z M432.621811,4.50884458 L432.621811,42.2573108 L432.726667,42.2573108 C434.194663,39.5310327 436.082087,37.3290389 438.703508,35.6513292 C441.151777,34.0047112 444.036719,33.1282731 446.987199,33.1347648 C450.866903,33.1347648 453.802894,34.1833333 456.004888,36.1756135 C458.206882,38.2727505 459.779735,41.5233129 460.723447,46.0321575 C461.637667,50.4001007 462.158265,56.4409407 462.18991,64.059347 L462.191443,64.8015337 L462.191443,76.1260736 C462.191443,86.7166155 460.828303,94.5808793 458.311739,99.6140082 C455.690318,104.647137 451.705757,107.163701 446.253201,107.163701 C443.212353,107.163701 440.486074,106.429703 437.96951,105.066564 C435.742056,103.768558 433.897942,101.908197 432.619841,99.6750483 L432.412097,99.2994376 L432.097526,99.2994376 L430.419817,106.115133 L417.102997,106.115133 L417.102997,4.50884458 L432.621811,4.50884458 Z M368.449418,8.17883436 L368.449418,21.1810838 L352.511177,21.1810838 L352.511177,106.21999 L336.782649,106.21999 L336.782649,21.1810838 L320.739551,21.1810838 L320.739551,8.17883436 L368.449418,8.17883436 Z M195.540471,8.17883436 L195.549368,8.21831506 C195.702992,8.90029808 197.823461,18.3253965 200.15457,29.3057636 L200.33901,30.1757348 C200.431417,30.6122051 200.52408,31.0508039 200.616892,31.4910893 L200.80268,32.3737779 C200.833667,32.5212237 200.864663,32.6688243 200.895663,32.8165631 L201.081684,33.7045241 C201.112686,33.8527505 201.143684,34.0010824 201.174675,34.1495034 L201.360496,35.0409685 L201.360496,35.0409685 L201.630891,36.3438432 C203.204721,43.9476033 204.707581,51.573842 205.606729,57.0421268 L206.026156,57.0421268 C206.888169,52.1367136 208.138966,45.8595566 209.473227,39.4509076 L209.822988,37.7769188 C209.998614,36.9392485 210.175209,36.1011759 210.352094,35.2654533 L210.627389,33.9677196 C213.194244,21.8944685 215.74837,10.6155298 216.223526,8.52432128 L216.254224,8.38927119 C216.285747,8.2506583 216.302128,8.17883436 216.302128,8.17883436 L232.345226,8.17883436 L213.785563,74.3435072 L213.785563,106.115133 L197.952179,106.115133 L197.952179,74.448364 L197.847322,74.448364 L179.497373,8.17883436 L195.540471,8.17883436 Z M250.485461,44.3544479 C248.283467,44.3544479 246.815471,45.5078732 245.87176,47.9195808 C244.928048,50.3312883 244.50862,54.0012781 244.50862,59.1392638 L244.50862,81.473773 C244.50862,86.7166155 244.928048,90.596319 245.766903,92.9031697 C246.605757,95.2100204 248.17861,96.3634458 250.485461,96.3634458 C252.687455,96.3634458 254.260308,95.2100204 255.204019,92.9031697 C256.147731,90.596319 256.567158,86.7166155 256.567158,81.473773 L256.567158,59.1392638 C256.567158,54.0012781 256.147731,50.2264315 255.204019,47.9195808 C254.260308,45.5078732 252.687455,44.3544479 250.485461,44.3544479 Z M435.452946,46.4515849 C434.175003,47.6312244 433.265697,49.087342 432.725029,50.906337 L432.621811,51.275 L432.621811,91.9594581 C433.922036,94.1614519 435.767516,95.6294479 439.018079,95.7343047 C440.695788,95.7343047 442.058927,95.1051636 443.107496,93.8468814 C444.156064,92.5885992 444.890062,90.4914622 445.30949,87.5554703 C445.71214,84.7369182 445.921518,80.8553692 445.937624,75.9108235 L445.938631,75.2872188 L445.938631,65.9549591 C445.938631,60.2926892 445.728917,55.9935583 445.414346,52.9527096 C444.994919,49.9118609 444.470635,47.7098671 443.526923,46.4515849 C441.702414,43.8301636 437.759796,43.8616207 435.452946,46.4515849 Z M490.92222,44.0398773 C489.139653,44.1447342 487.881371,44.6690184 487.147373,45.6127301 C486.308518,46.6612986 485.784234,48.2341513 485.469663,50.541002 C485.161384,52.8017157 485.054514,60.7018825 485.050363,61.0169849 L485.050236,66.1646728 L496.794203,66.1646728 L496.793373,61.6248446 L496.793236,61.7122499 C496.787382,63.2993708 496.754477,60.7909373 496.681842,57.7119157 L496.671921,57.2983077 C496.605889,54.5919004 496.509592,51.574591 496.374776,50.541002 C496.060205,48.1292945 495.535921,46.4515849 494.697066,45.5078732 C493.858211,44.5641616 492.599929,44.0398773 490.92222,44.0398773 Z" fill="#282828"></path>
		</g>
</svg>
